docs/img/ico-vk.svg

<svg width="18" height="11" viewBox="0 0 18 11" fill="none" xmlns="http://www.w3.org/2000/svg">
<path d="M10.9995 3.45772C10.9995 3.89634 10.9823 4.30975 10.9799 4.71812C10.9745 4.94087 11.0002 5.16325 11.056 5.37857C11.0899 5.51601 11.1656 5.63877 11.2723 5.72896C11.2986 5.7502 11.3295 5.76471 11.3624 5.77129C11.3953 5.77786 11.4292 5.77631 11.4614 5.76677C11.5762 5.72916 11.6812 5.66539 11.7686 5.58023C11.9786 5.38158 12.168 5.16109 12.3337 4.92231C12.9212 4.08781 13.4057 3.18182 13.7759 2.22505C13.8423 2.06372 13.9062 1.90491 13.9676 1.74106C13.9857 1.68933 14.0113 1.64119 14.0432 1.59807C14.1334 1.47584 14.285 1.40679 14.4369 1.41084C14.4713 1.41084 14.5081 1.41084 14.545 1.41084H17.002C17.1691 1.41084 17.3361 1.41084 17.4934 1.41084C17.5779 1.422 17.6606 1.4449 17.7391 1.4789C17.8028 1.49797 17.8584 1.53836 17.8972 1.59364C17.9359 1.64891 17.9555 1.71589 17.9528 1.78391C17.9528 1.95698 17.9194 2.12832 17.8546 2.28807C17.6898 2.69731 17.4822 3.08696 17.2354 3.45016C16.7759 4.17111 16.2526 4.84416 15.7612 5.53234C15.5966 5.76173 15.4418 5.99869 15.2944 6.23816C15.2071 6.37069 15.1672 6.5301 15.1813 6.68938C15.2023 6.84367 15.2712 6.98689 15.3779 7.09775C15.5573 7.29438 15.7391 7.48848 15.9307 7.67249C16.4442 8.14271 16.926 8.64802 17.373 9.18497C17.5814 9.43988 17.761 9.71808 17.9086 10.0143C17.9449 10.0943 17.9697 10.1792 17.9823 10.2664C18.0046 10.3628 17.9957 10.4641 17.9572 10.555C17.9187 10.6458 17.8525 10.7215 17.7686 10.7706C17.6043 10.877 17.4149 10.9354 17.2207 10.9394C16.4958 10.9596 15.771 10.9546 15.0487 10.9974C14.5841 11.0206 14.1285 10.86 13.7759 10.5487C13.5097 10.3242 13.263 10.0762 13.0388 9.80761C12.7931 9.53284 12.5646 9.25555 12.3017 8.99339C12.19 8.88087 12.0635 8.78498 11.9258 8.70854C11.8375 8.65309 11.7329 8.63177 11.6306 8.64841C11.5284 8.66504 11.4353 8.71854 11.3681 8.79929C11.2464 8.94975 11.1613 9.12774 11.1199 9.31857C11.0411 9.60944 10.9974 9.90914 10.9897 10.2109C10.986 10.2861 10.9786 10.3609 10.9676 10.4353C10.9538 10.5306 10.9142 10.6201 10.8534 10.6936C10.7927 10.7671 10.713 10.8217 10.6236 10.8512C10.5045 10.9023 10.3768 10.9289 10.2477 10.9294C9.92336 10.9294 9.59903 10.9294 9.26488 10.9294C8.69241 10.9226 8.12574 10.8107 7.59166 10.5991C6.62725 10.2264 5.76434 9.6212 5.07569 8.83458C4.39232 8.06326 3.78341 7.2258 3.25751 6.33395C2.42454 4.94844 1.68569 3.50564 1.04621 2.01583C1.00447 1.91756 0.988384 1.80983 0.999527 1.70325C1.00189 1.6634 1.0148 1.62497 1.03689 1.59209C1.05897 1.55922 1.08938 1.53316 1.12483 1.51671C1.24599 1.45395 1.37978 1.42114 1.5155 1.42092H3.95776C4.10258 1.43098 4.24145 1.48399 4.35747 1.57348C4.47349 1.66298 4.56168 1.78513 4.61132 1.92508C4.82227 2.49725 5.0761 3.05181 5.37053 3.58376C5.6893 4.17595 6.04808 4.74452 6.44424 5.2853C6.57863 5.48533 6.74473 5.66086 6.93564 5.80458C6.99645 5.85673 7.07112 5.88893 7.14998 5.89702C7.22883 5.90511 7.30824 5.88872 7.3779 5.84996C7.45408 5.80319 7.51353 5.73247 7.54744 5.64829C7.63668 5.43796 7.69147 5.21396 7.7096 4.98533C7.76323 4.45273 7.77392 3.9165 7.74154 3.3821C7.73556 3.06313 7.70351 2.74523 7.64572 2.43176C7.63098 2.35361 7.60395 2.27799 7.58921 2.19985C7.57148 2.12717 7.53857 2.05932 7.49275 2.001C7.44693 1.94267 7.3893 1.89526 7.32385 1.86206C7.1552 1.7545 6.96402 1.6897 6.76611 1.673C6.7096 1.673 6.68994 1.64275 6.71451 1.59233C6.73555 1.54215 6.7637 1.49543 6.79805 1.45369C6.97774 1.2532 7.22037 1.12383 7.48356 1.08817C7.86486 1.02104 8.25156 0.991493 8.63835 0.999946C9.06832 0.999946 9.50076 0.999946 9.93319 1.02767C10.1208 1.03988 10.3068 1.07112 10.4885 1.12094C10.6331 1.15044 10.7638 1.22925 10.8592 1.34458C10.9547 1.45991 11.0093 1.60497 11.0143 1.75618C11.0352 1.99923 11.0426 2.24331 11.0364 2.48722C11.0315 2.81744 11.0118 3.15019 10.9995 3.45772Z" fill="white"/>
</svg>

<svg width="18" height="11" fill="none" xmlns="http://www.w3.org/2000/svg"><path d="M11 3.458c0 .438-.018.852-.02 1.26-.005.223.02.445.076.66.034.138.11.26.216.351a.209.209 0 0 0 .19.038.795.795 0 0 0 .307-.187c.21-.198.399-.419.565-.658a12.556 12.556 0 0 0 1.442-2.697c.066-.161.13-.32.192-.484a.477.477 0 0 1 .47-.33h3.055a.922.922 0 0 1 .246.068c.064.019.12.06.158.115a.31.31 0 0 1 .056.19c0 .173-.034.344-.098.504-.165.41-.373.799-.62 1.162-.46.721-.982 1.394-1.474 2.082-.164.23-.32.467-.467.706a.708.708 0 0 0-.113.451.73.73 0 0 0 .197.409c.18.196.361.39.553.574.513.47.995.976 1.442 1.513.208.255.388.533.536.83.036.08.06.164.073.251a.47.47 0 0 1-.213.505 1.047 1.047 0 0 1-.548.168c-.725.02-1.45.016-2.172.058a1.787 1.787 0 0 1-1.273-.448 5.994 5.994 0 0 1-.737-.741c-.246-.275-.474-.552-.737-.815a1.676 1.676 0 0 0-.376-.284.426.426 0 0 0-.558.09c-.122.15-.207.329-.248.52-.079.29-.123.59-.13.892a2.31 2.31 0 0 1-.022.224.523.523 0 0 1-.115.259.503.503 0 0 1-.23.157.962.962 0 0 1-.375.078h-.983a4.693 4.693 0 0 1-1.673-.33 6.424 6.424 0 0 1-2.516-1.764 16.11 16.11 0 0 1-1.818-2.501 35.74 35.74 0 0 1-2.212-4.318A.632.632 0 0 1 1 1.703a.223.223 0 0 1 .125-.186.852.852 0 0 1 .39-.096h2.443a.744.744 0 0 1 .653.504c.211.572.465 1.127.76 1.659.318.592.677 1.16 1.073 1.701.135.2.3.376.492.52a.39.39 0 0 0 .442.045.42.42 0 0 0 .17-.202c.089-.21.143-.434.162-.663a9.98 9.98 0 0 0 .032-1.603 5.847 5.847 0 0 0-.096-.95c-.015-.078-.042-.154-.057-.232a.522.522 0 0 0-.265-.338 1.23 1.23 0 0 0-.558-.189c-.056 0-.076-.03-.051-.08a.557.557 0 0 1 .083-.14c.18-.2.422-.33.686-.365A5.914 5.914 0 0 1 8.638 1c.43 0 .863 0 1.295.028.188.012.374.043.556.093a.65.65 0 0 1 .37.224.68.68 0 0 1 .155.411c.021.243.029.487.022.731-.005.33-.024.663-.037.97z" fill="#fff"/></svg>
